src/pos-icons/account-cash-outline.svg

<svg height="24" viewBox="0 0 24 24" width="24" xmlns="http://www.w3.org/2000/svg"><path d="m16 11.5c0-1.38 1.12-2.5 2.5-2.5s2.5 1.12 2.5 2.5-1.12 2.5-2.5 2.5-2.5-1.12-2.5-2.5m-3-8.5v17h11v-17zm9 13c-1.1 0-2 .9-2 2h-3c0-1.1-.89-2-2-2v-9c1.11 0 2-.89 2-2h3c0 1.11.9 2 2 2zm-15-10c1.1 0 2 .9 2 2s-.9 2-2 2-2-.9-2-2 .9-2 2-2m0-2c-2.21 0-4 1.79-4 4s1.79 4 4 4 4-1.79 4-4-1.79-4-4-4m0 10c-3.87 0-7 1.79-7 4v2h11v-2h-9c0-.58 1.75-2 5-2 1.83 0 3.17.45 4 .95v-2.23c-1.13-.45-2.5-.72-4-.72z"/></svg>

<?xml version="1.0" encoding="UTF-8"?><!DOCTYPE svg PUBLIC "-//W3C//DTD SVG 1.1//EN" "http://www.w3.org/Graphics/SVG/1.1/DTD/svg11.dtd"><svg xmlns="http://www.w3.org/2000/svg" xmlns:xlink="http://www.w3.org/1999/xlink" version="1.1" id="mdi-account-cash-outline" width="24" height="24" viewBox="0 0 24 24"><path d="M16 11.5C16 10.12 17.12 9 18.5 9S21 10.12 21 11.5 19.88 14 18.5 14 16 12.88 16 11.5M13 3V20H24V3H13M22 16C20.9 16 20 16.9 20 18H17C17 16.9 16.11 16 15 16V7C16.11 7 17 6.11 17 5H20C20 6.11 20.9 7 22 7V16M7 6C8.1 6 9 6.9 9 8S8.1 10 7 10 5 9.1 5 8 5.9 6 7 6M7 4C4.79 4 3 5.79 3 8S4.79 12 7 12 11 10.21 11 8 9.21 4 7 4M7 14C3.13 14 0 15.79 0 18V20H11V18H2C2 17.42 3.75 16 7 16C8.83 16 10.17 16.45 11 16.95V14.72C9.87 14.27 8.5 14 7 14Z" /></svg>
